assets/icons/24px/stroke/text-24px-2.svg

<svg width="24" height="24" viewBox="0 0 24 24" fill="none" xmlns="http://www.w3.org/2000/svg">
<path fill-rule="evenodd" clip-rule="evenodd" d="M5.19976 2.00001C5.21304 2.00002 5.22646 2.00002 5.24002 2.00002H11.76C11.7736 2.00002 11.787 2.00002 11.8003 2.00001C11.983 1.99994 12.14 1.99988 12.2823 2.01333C13.716 2.14886 14.8512 3.284 14.9867 4.7177C15.0002 4.86003 15.0001 5.01707 15 5.19976C15 5.21304 15 5.22646 15 5.24002V5.70002C15 6.25231 14.5523 6.70002 14 6.70002C13.4477 6.70002 13 6.25231 13 5.70002V5.24002C13 4.9943 12.9989 4.94103 12.9956 4.90591C12.9504 4.42801 12.572 4.04963 12.0941 4.00446C12.059 4.00114 12.0057 4.00002 11.76 4.00002H9.50002V20H11.0385C11.5908 20 12.0385 20.4477 12.0385 21C12.0385 21.5523 11.5908 22 11.0385 22H5.96156C5.40927 22 4.96156 21.5523 4.96156 21C4.96156 20.4477 5.40927 20 5.96156 20H7.50002V4.00002H5.24002C4.9943 4.00002 4.94103 4.00114 4.90591 4.00446C4.42801 4.04963 4.04963 4.42801 4.00446 4.90591C4.00114 4.94103 4.00002 4.9943 4.00002 5.24002V5.70002C4.00002 6.25231 3.5523 6.70002 3.00002 6.70002C2.44774 6.70002 2.00002 6.25231 2.00002 5.70002V5.24002C2.00002 5.22646 2.00002 5.21304 2.00001 5.19976C1.99994 5.01707 1.99988 4.86003 2.01333 4.7177C2.14886 3.284 3.284 2.14886 4.7177 2.01333C4.86003 1.99988 5.01707 1.99994 5.19976 2.00001Z" fill="white"/>
<path fill-rule="evenodd" clip-rule="evenodd" d="M15.343 9.99976C15.3727 9.99987 15.4018 9.99999 15.43 9.99999H19.57C19.5983 9.99999 19.6273 9.99987 19.6571 9.99976C19.96 9.99857 20.3328 9.99711 20.6627 10.113C21.2355 10.3141 21.6859 10.7645 21.8871 11.3373C22.0029 11.6672 22.0015 12.0401 22.0003 12.343C22.0002 12.3727 22 12.4017 22 12.43V12.5C22 13.0523 21.5523 13.5 21 13.5C20.4478 13.5 20 13.0523 20 12.5V12.43C20 12.2181 19.9996 12.1022 19.9947 12.0182C19.9945 12.0139 19.9942 12.0098 19.9939 12.0061C19.9902 12.0058 19.9862 12.0056 19.9819 12.0053C19.8978 12.0004 19.7819 12 19.57 12H18.5V20H19C19.5523 20 20 20.4477 20 21C20 21.5523 19.5523 22 19 22H16C15.4478 22 15 21.5523 15 21C15 20.4477 15.4478 20 16 20H16.5V12H15.43C15.2182 12 15.1023 12.0004 15.0182 12.0053C15.0139 12.0056 15.0099 12.0058 15.0062 12.0061C15.0059 12.0098 15.0056 12.0139 15.0054 12.0182C15.0005 12.1022 15 12.2181 15 12.43V12.5C15 13.0523 14.5523 13.5 14 13.5C13.4478 13.5 13 13.0523 13 12.5V12.43C13 12.4017 12.9999 12.3727 12.9998 12.343C12.9986 12.0401 12.9972 11.6672 13.113 11.3373C13.3142 10.7645 13.7646 10.3141 14.3374 10.113C14.6673 9.99711 15.0401 9.99857 15.343 9.99976Z" fill="white"/>
</svg>

<svg width="24" height="24" fill="none" xmlns="http://www.w3.org/2000/svg"><path fill-rule="evenodd" clip-rule="evenodd" d="M5.2 2h6.6c.183 0 .34 0 .482.013a3 3 0 0 1 2.705 2.705c.013.142.013.3.013.482v.5a1 1 0 1 1-2 0v-.46c0-.246-.001-.299-.004-.334a1 1 0 0 0-.902-.902A4.726 4.726 0 0 0 11.76 4H9.5v16h1.539a1 1 0 1 1 0 2H5.962a1 1 0 1 1 0-2H7.5V4H5.24c-.246 0-.299.001-.334.004a1 1 0 0 0-.902.902A4.726 4.726 0 0 0 4 5.24v.46a1 1 0 1 1-2 0v-.46-.04c0-.183 0-.34.013-.482a3 3 0 0 1 2.705-2.705C4.86 2 5.018 2 5.2 2z" fill="#fff"/><path fill-rule="evenodd" clip-rule="evenodd" d="M15.343 10H19.657c.303-.001.676-.003 1.006.113a2 2 0 0 1 1.224 1.224c.116.33.114.703.113 1.006v.157a1 1 0 1 1-2 0v-.07a8.17 8.17 0 0 0-.006-.424h-.012A8.178 8.178 0 0 0 19.57 12H18.5v8h.5a1 1 0 1 1 0 2h-3a1 1 0 0 1 0-2h.5v-8h-1.07c-.212 0-.328 0-.412.005l-.012.001v.012c-.005.084-.006.2-.006.412v.07a1 1 0 1 1-2 0v-.07-.087c-.001-.303-.003-.676.113-1.006a2 2 0 0 1 1.224-1.224c.33-.116.703-.114 1.006-.113z" fill="#fff"/></svg>
